Landie/img/undraw/undraw-01.svg

<svg width="540" height="525" fill="none" xmlns="http://www.w3.org/2000/svg"><path d="M125.187 397.963L167 331.841l-93.641-59.878L25 348.436l77.453 49.527h22.734z" fill="#F0F0F0"/><path fill-rule="evenodd" clip-rule="evenodd" d="M80 416.963h103v-20H80v20zm101.662-1.29H81.338v-17.42h100.324v17.42z" fill="#3F3D56"/><path d="M171.5 413.963a6.5 6.5 0 100-13 6.5 6.5 0 000 13zm-20 0a6.5 6.5 0 100-13 6.5 6.5 0 000 13zm-18 0a6.5 6.5 0 100-13 6.5 6.5 0 000 13zm-19 0a6.5 6.5 0 100-13 6.5 6.5 0 000 13zm-19 0a6.5 6.5 0 100-13 6.5 6.5 0 000 13z" fill="#222F65"/><path d="M307.462 185.904v-51.075H333v-24.866H208v125h106.855v-12.222a17.35 17.35 0 0117.348-17.348H333v-19.489h-25.538zM47.65 10.568L87.432.649l9.919 39.782-39.782 9.919z" fill="#F0F0F0"/><path fill="#222F65" d="M362 432.963h84v17h-84z"/><path fill="#F0F0F0" d="M340 346.963h123v16H340z"/><path fill="#3F3D56" d="M0 523.963h524v1H0z"/><path fill-rule="evenodd" clip-rule="evenodd" d="M331.035 524.963h152.93c9.956-.011 18.024-8.076 18.035-18.027V222.989c-.011-9.951-8.079-18.015-18.035-18.026h-152.93c-9.956.011-18.024 8.075-18.035 18.026v283.947c.011 9.951 8.079 18.016 18.035 18.027zm-16.69-301.974c.011-9.208 7.477-16.671 16.69-16.682h152.93c9.213.011 16.679 7.474 16.69 16.682v283.947c-.011 9.209-7.477 16.672-16.69 16.682h-152.93c-9.213-.01-16.679-7.473-16.69-16.682V222.989z" fill="#3F3D56"/><path fill-rule="evenodd" clip-rule="evenodd" d="M386 214.963a4 4 0 108 0 4 4 0 00-8 0zm1.333 0a2.667 2.667 0 115.334 0 2.667 2.667 0 01-5.334 0z" fill="#3F3D56"/><path fill="#3F3D56" d="M400 213.963h30v1h-30z"/><path d="M491 223.963v54c-29.823-.001-53.999-24.177-54-54h54z" fill="#222F65"/><path fill-rule="evenodd" clip-rule="evenodd" d="M325 506.963h166v-283H325v283zm164.656-1.344H326.344V225.307h163.312v280.312z" fill="#3F3D56"/><path opacity=".1" d="M451.5 274.963c10.217 0 18.5-8.283 18.5-18.5s-8.283-18.5-18.5-18.5-18.5 8.283-18.5 18.5 8.283 18.5 18.5 18.5z" fill="#000"/><path d="M448.5 276.963c10.217 0 18.5-8.283 18.5-18.5s-8.283-18.5-18.5-18.5-18.5 8.283-18.5 18.5 8.283 18.5 18.5 18.5z" fill="#222F65"/><path fill="#3F3D56" d="M332 234.963h26v9h-26zm14 90h26v9h-26z"/><path fill-rule="evenodd" clip-rule="evenodd" d="M347 359.963h124v-17H347v17zm122.652-1.308H348.348v-14.384h121.304v14.384z" fill="#3F3D56"/><path fill="#F0F0F0" d="M340 397.963h123v16H340z"/><path fill="#3F3D56" d="M346 374.963h26v9h-26z"/><path fill-rule="evenodd" clip-rule="evenodd" d="M347 410.963h124v-17H347v17zm122.652-1.308H348.348v-14.384h121.304v14.384zM366 445.963h85v-18h-85v18zm83.651-1.286h-82.302v-15.428h82.302v15.428z" fill="#3F3D56"/><path d="M466 353.463a6.5 6.5 0 01-11.509 4.14l-.007-.006a6.5 6.5 0 015.884-10.575 6.499 6.499 0 015.445 4.905l.005.002c.12.502.181 1.017.182 1.534z" fill="#222F65"/><path opacity=".1" d="M466 353.088c0 2.9-1.765 5.487-4.411 6.469-2.646.981-5.604.145-7.396-2.09l-.006-.007a7.253 7.253 0 01-.187-1.622c0-2.9 1.765-5.488 4.411-6.469 2.646-.981 5.604-.145 7.396 2.09 0 .002 0 .003.002.005a.008.008 0 00.004.002c.123.531.186 1.076.187 1.622z" fill="#000"/><path d="M462.5 362.963a6.5 6.5 0 100-13 6.5 6.5 0 000 13zm3.5 40.5a6.5 6.5 0 01-11.509 4.14l-.007-.006a6.5 6.5 0 015.884-10.575 6.499 6.499 0 015.445 4.905l.005.002c.12.502.181 1.017.182 1.534z" fill="#222F65"/><path opacity=".1" d="M466 404.088c0 2.9-1.765 5.487-4.411 6.469-2.646.981-5.604.145-7.396-2.09l-.006-.007a7.253 7.253 0 01-.187-1.622c0-2.9 1.765-5.488 4.411-6.469 2.646-.981 5.604-.145 7.396 2.09 0 .002 0 .003.002.005a.008.008 0 00.004.002c.123.531.186 1.076.187 1.622z" fill="#000"/><path d="M462.5 413.963a6.5 6.5 0 100-13 6.5 6.5 0 000 13z" fill="#222F65"/><path fill="#F0F0F0" d="M315 141.963h35v35h-35z"/><path fill-rule="evenodd" clip-rule="evenodd" d="M443 158.963a8 8 0 008 8 8.01 8.01 0 008-8 8 8 0 00-16 0zm1.333 0a6.667 6.667 0 016.667-6.667 6.675 6.675 0 016.667 6.667 6.667 6.667 0 01-13.334 0zM257 279.963h17v-17h-17v17zm15.692-1.308h-14.384v-14.384h14.384v14.384zM523 410.963h17v-17h-17v17zm15.692-1.308h-14.384v-14.384h14.384v14.384z" fill="#3F3D56"/><path d="M195 293.867l2.998 1.626 10.2 5.536 16.467 8.934 9.597-17.929a14.656 14.656 0 001.13-11.101 14.543 14.543 0 00-7.005-8.647 19.108 19.108 0 00-22.427 3.064l-.005.006a19.34 19.34 0 00-3.612 4.786L195 293.867z" fill="#2F2E41"/><path d="M240 474.043l-1.931 22.88-7.242 1.04-4.827-26 14 2.08z" fill="#FFB8B8"/><path d="M228.352 498.581s9.575-5.132 11.591-1.026c0 0-1.512 12.316 4.536 13.856 6.048 1.539 8.568 12.316 0 13.342-8.567 1.027-14.111-2.052-17.135-2.052-3.024 0 0-10.777 0-10.777l1.008-13.343z" fill="#2F2E41"/><path d="M179 474.043l1.931 22.88 7.242 1.04 4.827-26-14 2.08z" fill="#FFB8B8"/><path d="M191.648 498.581s-9.575-5.132-11.591-1.026c0 0 1.512 12.316-4.536 13.856-6.048 1.539-8.568 12.316 0 13.342 8.567 1.027 14.111-2.052 17.135-2.052 3.024 0 0-10.777 0-10.777l-1.008-13.343z" fill="#2F2E41"/><path d="M219.5 297.963c7.456 0 13.5-6.044 13.5-13.5s-6.044-13.5-13.5-13.5-13.5 6.044-13.5 13.5 6.044 13.5 13.5 13.5z" fill="#FFB8B8"/><path d="M179 309.763l10.495 16.694 12.493-1.012 20.489 1.518s1.934-3.916 3.514-7.725a30.177 30.177 0 001.983-5.934c.5-3.541-6.496-7.082-6.496-7.082s-.275-.051-.735-.162a28.648 28.648 0 01-2.578-.744c-2.324-.799-5.118-2.155-5.682-4.153-1-3.541 6.496-8.6 6.496-8.6l-8.995-8.6s-7.991 11.236-17.696 13.795c-.563.151-1.133.269-1.709.354l-.085.016C179.999 299.645 179 309.763 179 309.763z" fill="#FFB8B8"/><path d="M184.264 305.963l-5.787 4.538s-4.736 21.683-3.158 27.734c1.579 6.051-.526 11.598-.526 12.606 0 1.009-4.735 38.827-4.735 38.827s-9.471 20.17.526 18.153c9.997-2.017 6.314-22.187 6.314-22.187L189 350.337v-29.751l-4.736-14.623zm39.782 4l4.091 3 2.046 41.995 15.342 35.997s11.251 17.498 4.091 17.998c-7.16.5-11.762-17.998-11.762-17.998l-13.808-34.497L222 322.962l2.046-12.999z" fill="#FFB8B8"/><path d="M198.734 311.963s10.087 7.078 26.226 4.55c0 0 4.539 9.1 2.018 14.155-2.522 5.056 3.026 17.189 4.034 18.705 1.009 1.517 12.609 32.861 16.644 66.732 4.034 33.872 15.13 57.127 5.547 60.16-9.582 3.033-29.252 6.572-31.269 3.539-2.017-3.033-5.043-78.36-5.043-78.36l-5.548 28.817s7.565 49.037 2.017 50.049c-5.548 1.011-40.347-2.023-39.339-8.089 1.009-6.067 11.096-37.916 11.096-37.916s-.504-63.699 9.583-75.832c0 0 4.034-6.572-1.513-15.166-5.548-8.595-5.044-22.244-5.044-22.244s4.035 0 10.591-9.1z" fill="#2F2E41"/><path d="M190 298.315l8.08 18.648 1.92-1.007-8.358-17.993-1.642.352zm28 7.648l6.452 14 1.548-.136-.526-2.383-4.838-10.74a29.912 29.912 0 01-2.636-.741zm-20.623-10.977c.989 3.266 3.79 5.605 7.107 5.937 3.318.331 6.505-1.41 8.09-4.419-6.366-8.54-.906-13.905 9.436-17.963 1.593-3.034 1.241-6.755-.891-9.418-5.773-.758-11.571 1.201-15.776 5.329l-.005.005-7.347 13.982a8.65 8.65 0 00-.614 6.547z" fill="#2F2E41"/><path d="M212.5 288.963c.828 0 1.5-1.343 1.5-3s-.672-3-1.5-3-1.5 1.343-1.5 3 .672 3 1.5 3z" fill="#FFB8B8"/><path d="M218 281.084l15.212 6.879 2.788-6.141a14.533 14.533 0 00-2.935-6.127l-10.47-4.732L218 281.084z" fill="#2F2E41"/><path d="M254.5 415.963a6.5 6.5 0 100-13 6.5 6.5 0 000 13z" fill="#222F65"/><path d="M38.5 455.963a4.5 4.5 0 100-9 4.5 4.5 0 000 9z" fill="#FF6584"/><path fill="#3F3D56" d="M59 474.963h1v50h-1z"/><path d="M60 480.963a7 7 0 100-14 7 7 0 000 14zm-1 24s-.977-21.273-21-18.8l21 18.8z" fill="#3F3D56"/></svg>

<svg width="540" height="525" viewBox="0 0 540 525" fill="none" xmlns="http://www.w3.org/2000/svg">
<path d="M125.187 397.963L167 331.841L73.3587 271.963L25 348.436L102.453 397.963H125.187Z" fill="#F0F0F0"/>
<path fill-rule="evenodd" clip-rule="evenodd" d="M80 416.963H183V396.963H80V416.963ZM181.662 415.673H81.3377V398.253H181.662V415.673Z" fill="#3F3D56"/>
<path d="M171.5 413.963C175.09 413.963 178 411.053 178 407.463C178 403.873 175.09 400.963 171.5 400.963C167.91 400.963 165 403.873 165 407.463C165 411.053 167.91 413.963 171.5 413.963Z" fill="#222F65"/>
<path d="M151.5 413.963C155.09 413.963 158 411.053 158 407.463C158 403.873 155.09 400.963 151.5 400.963C147.91 400.963 145 403.873 145 407.463C145 411.053 147.91 413.963 151.5 413.963Z" fill="#222F65"/>
<path d="M133.5 413.963C137.09 413.963 140 411.053 140 407.463C140 403.873 137.09 400.963 133.5 400.963C129.91 400.963 127 403.873 127 407.463C127 411.053 129.91 413.963 133.5 413.963Z" fill="#222F65"/>
<path d="M114.5 413.963C118.09 413.963 121 411.053 121 407.463C121 403.873 118.09 400.963 114.5 400.963C110.91 400.963 108 403.873 108 407.463C108 411.053 110.91 413.963 114.5 413.963Z" fill="#222F65"/>
<path d="M95.5 413.963C99.0899 413.963 102 411.053 102 407.463C102 403.873 99.0899 400.963 95.5 400.963C91.9101 400.963 89 403.873 89 407.463C89 411.053 91.9101 413.963 95.5 413.963Z" fill="#222F65"/>
<path d="M307.462 185.904V134.829H333V109.963H208V234.963H314.855V222.741C314.855 218.14 316.683 213.728 319.936 210.474C323.19 207.221 327.602 205.393 332.203 205.393H333V185.904H307.462Z" fill="#F0F0F0"/>
<rect x="47.6495" y="10.5684" width="41" height="41" transform="rotate(-14 47.6495 10.5684)" fill="#F0F0F0"/>
<rect x="362" y="432.963" width="84" height="17" fill="#222F65"/>
<rect x="340" y="346.963" width="123" height="16" fill="#F0F0F0"/>
<rect y="523.963" width="524" height="1" fill="#3F3D56"/>
<path fill-rule="evenodd" clip-rule="evenodd" d="M331.035 524.963H483.965C493.921 524.952 501.989 516.887 502 506.936V222.989C501.989 213.038 493.921 204.974 483.965 204.963H331.035C321.079 204.974 313.011 213.038 313 222.989V506.936C313.011 516.887 321.079 524.952 331.035 524.963ZM314.345 222.989C314.356 213.781 321.822 206.318 331.035 206.307H483.965C493.178 206.318 500.644 213.781 500.655 222.989V506.936C500.644 516.145 493.178 523.608 483.965 523.618H331.035C321.822 523.608 314.356 516.145 314.345 506.936V222.989Z" fill="#3F3D56"/>
<path fill-rule="evenodd" clip-rule="evenodd" d="M386 214.963C386 217.172 387.791 218.963 390 218.963C392.208 218.961 393.998 217.171 394 214.963C394 212.754 392.209 210.963 390 210.963C387.791 210.963 386 212.754 386 214.963ZM387.333 214.963C387.333 213.49 388.527 212.296 390 212.296C391.472 212.298 392.665 213.491 392.667 214.963C392.667 216.436 391.473 217.63 390 217.63C388.527 217.63 387.333 216.436 387.333 214.963Z" fill="#3F3D56"/>
<rect x="400" y="213.963" width="30" height="1" fill="#3F3D56"/>
<path d="M491 223.963V277.963C461.177 277.962 437.001 253.786 437 223.963H491Z" fill="#222F65"/>
<path fill-rule="evenodd" clip-rule="evenodd" d="M325 506.963H491V223.963H325V506.963ZM489.656 505.619H326.344V225.307H489.656V505.619Z" fill="#3F3D56"/>
<path opacity="0.1" d="M451.5 274.963C461.717 274.963 470 266.68 470 256.463C470 246.246 461.717 237.963 451.5 237.963C441.283 237.963 433 246.246 433 256.463C433 266.68 441.283 274.963 451.5 274.963Z" fill="black"/>
<path d="M448.5 276.963C458.717 276.963 467 268.68 467 258.463C467 248.246 458.717 239.963 448.5 239.963C438.283 239.963 430 248.246 430 258.463C430 268.68 438.283 276.963 448.5 276.963Z" fill="#222F65"/>
<rect x="332" y="234.963" width="26" height="9" fill="#3F3D56"/>
<rect x="346" y="324.963" width="26" height="9" fill="#3F3D56"/>
<path fill-rule="evenodd" clip-rule="evenodd" d="M347 359.963H471V342.963H347V359.963ZM469.652 358.655H348.348V344.271H469.652V358.655Z" fill="#3F3D56"/>
<rect x="340" y="397.963" width="123" height="16" fill="#F0F0F0"/>
<rect x="346" y="374.963" width="26" height="9" fill="#3F3D56"/>
<path fill-rule="evenodd" clip-rule="evenodd" d="M347 410.963H471V393.963H347V410.963ZM469.652 409.655H348.348V395.271H469.652V409.655Z" fill="#3F3D56"/>
<path fill-rule="evenodd" clip-rule="evenodd" d="M366 445.963H451V427.963H366V445.963ZM449.651 444.677H367.349V429.249H449.651V444.677Z" fill="#3F3D56"/>
<path d="M466 353.463C466 356.204 464.28 358.651 461.7 359.579C459.121 360.507 456.237 359.716 454.491 357.603L454.484 357.597C452.783 355.533 452.52 352.639 453.82 350.302C455.12 347.965 457.719 346.664 460.368 347.022C463.018 347.38 465.178 349.324 465.812 351.922C465.811 351.924 465.812 351.926 465.813 351.927C465.815 351.928 465.816 351.929 465.818 351.929C465.938 352.431 465.999 352.946 466 353.463Z" fill="#222F65"/>
<path opacity="0.1" d="M466 353.088C466 355.988 464.235 358.575 461.589 359.557C458.943 360.538 455.985 359.702 454.193 357.467L454.187 357.46C454.064 356.929 454.001 356.384 454 355.838C454 352.938 455.765 350.35 458.411 349.369C461.057 348.388 464.015 349.224 465.807 351.459C465.807 351.461 465.807 351.462 465.809 351.464C465.81 351.465 465.812 351.466 465.813 351.466C465.936 351.997 465.999 352.542 466 353.088Z" fill="black"/>
<path d="M462.5 362.963C466.09 362.963 469 360.053 469 356.463C469 352.873 466.09 349.963 462.5 349.963C458.91 349.963 456 352.873 456 356.463C456 360.053 458.91 362.963 462.5 362.963Z" fill="#222F65"/>
<path d="M466 403.463C466 406.204 464.28 408.651 461.7 409.579C459.121 410.507 456.237 409.716 454.491 407.603L454.484 407.597C452.783 405.533 452.52 402.639 453.82 400.302C455.12 397.965 457.719 396.664 460.368 397.022C463.018 397.38 465.178 399.324 465.812 401.922C465.811 401.924 465.812 401.926 465.813 401.927C465.815 401.928 465.816 401.929 465.818 401.929C465.938 402.431 465.999 402.946 466 403.463Z" fill="#222F65"/>
<path opacity="0.1" d="M466 404.088C466 406.988 464.235 409.575 461.589 410.557C458.943 411.538 455.985 410.702 454.193 408.467L454.187 408.46C454.064 407.929 454.001 407.384 454 406.838C454 403.938 455.765 401.35 458.411 400.369C461.057 399.388 464.015 400.224 465.807 402.459C465.807 402.461 465.807 402.462 465.809 402.464C465.81 402.465 465.812 402.466 465.813 402.466C465.936 402.997 465.999 403.542 466 404.088Z" fill="black"/>
<path d="M462.5 413.963C466.09 413.963 469 411.053 469 407.463C469 403.873 466.09 400.963 462.5 400.963C458.91 400.963 456 403.873 456 407.463C456 411.053 458.91 413.963 462.5 413.963Z" fill="#222F65"/>
<rect x="315" y="141.963" width="35" height="35" fill="#F0F0F0"/>
<path fill-rule="evenodd" clip-rule="evenodd" d="M443 158.963C443 163.381 446.582 166.963 451 166.963C455.416 166.958 458.995 163.379 459 158.963C459 154.545 455.418 150.963 451 150.963C446.582 150.963 443 154.545 443 158.963ZM444.333 158.963C444.333 155.281 447.318 152.296 451 152.296C454.68 152.3 457.662 155.283 457.667 158.963C457.667 162.645 454.682 165.63 451 165.63C447.318 165.63 444.333 162.645 444.333 158.963Z" fill="#3F3D56"/>
<path fill-rule="evenodd" clip-rule="evenodd" d="M257 279.963H274V262.963H257V279.963ZM272.692 278.655H258.308V264.271H272.692V278.655Z" fill="#3F3D56"/>
<path fill-rule="evenodd" clip-rule="evenodd" d="M523 410.963H540V393.963H523V410.963ZM538.692 409.655H524.308V395.271H538.692V409.655Z" fill="#3F3D56"/>
<path d="M195 293.867L197.998 295.493L208.198 301.029L224.665 309.963L234.262 292.034C236.087 288.631 236.494 284.638 235.392 280.933C234.29 277.229 231.77 274.118 228.387 272.286C221.044 268.293 211.981 269.532 205.96 275.35L205.955 275.356C204.511 276.752 203.292 278.367 202.343 280.142L195 293.867Z" fill="#2F2E41"/>
<path d="M240 474.043L238.069 496.923L230.827 497.963L226 471.963L240 474.043Z" fill="#FFB8B8"/>
<path d="M228.352 498.581C228.352 498.581 237.927 493.449 239.943 497.555C239.943 497.555 238.431 509.871 244.479 511.411C250.527 512.95 253.047 523.727 244.479 524.753C235.912 525.78 230.368 522.701 227.344 522.701C224.32 522.701 227.344 511.924 227.344 511.924L228.352 498.581Z" fill="#2F2E41"/>
<path d="M179 474.043L180.931 496.923L188.173 497.963L193 471.963L179 474.043Z" fill="#FFB8B8"/>
<path d="M191.648 498.581C191.648 498.581 182.073 493.449 180.057 497.555C180.057 497.555 181.569 509.871 175.521 511.411C169.473 512.95 166.953 523.727 175.521 524.753C184.088 525.78 189.632 522.701 192.656 522.701C195.68 522.701 192.656 511.924 192.656 511.924L191.648 498.581Z" fill="#2F2E41"/>
<path d="M219.5 297.963C226.956 297.963 233 291.919 233 284.463C233 277.007 226.956 270.963 219.5 270.963C212.044 270.963 206 277.007 206 284.463C206 291.919 212.044 297.963 219.5 297.963Z" fill="#FFB8B8"/>
<path d="M179 309.763L189.495 326.457L201.988 325.445L222.477 326.963C222.477 326.963 224.411 323.047 225.991 319.238C226.855 317.336 227.52 315.347 227.974 313.304C228.474 309.763 221.478 306.222 221.478 306.222C221.478 306.222 221.203 306.171 220.743 306.06C220.134 305.913 219.194 305.67 218.165 305.316C215.841 304.517 213.047 303.161 212.483 301.163C211.483 297.622 218.979 292.563 218.979 292.563L209.984 283.963C209.984 283.963 201.993 295.199 192.288 297.758C191.725 297.909 191.155 298.027 190.579 298.112C190.549 298.117 190.524 298.123 190.494 298.128C179.999 299.645 179 309.763 179 309.763Z" fill="#FFB8B8"/>
<path d="M184.264 305.963L178.477 310.501C178.477 310.501 173.741 332.184 175.319 338.235C176.898 344.286 174.793 349.833 174.793 350.841C174.793 351.85 170.058 389.668 170.058 389.668C170.058 389.668 160.587 409.838 170.584 407.821C180.581 405.804 176.898 385.634 176.898 385.634L189 350.337V320.586L184.264 305.963Z" fill="#FFB8B8"/>
<path d="M224.046 309.963L228.137 312.963L230.183 354.958L245.525 390.955C245.525 390.955 256.776 408.453 249.616 408.953C242.456 409.453 237.854 390.955 237.854 390.955L224.046 356.458L222 322.962L224.046 309.963Z" fill="#FFB8B8"/>
<path d="M198.734 311.963C198.734 311.963 208.821 319.041 224.96 316.513C224.96 316.513 229.499 325.613 226.978 330.668C224.456 335.724 230.004 347.857 231.012 349.373C232.021 350.89 243.621 382.234 247.656 416.105C251.69 449.977 262.786 473.232 253.203 476.265C243.621 479.298 223.951 482.837 221.934 479.804C219.917 476.771 216.891 401.444 216.891 401.444L211.343 430.261C211.343 430.261 218.908 479.298 213.36 480.31C207.812 481.321 173.013 478.287 174.021 472.221C175.03 466.154 185.117 434.305 185.117 434.305C185.117 434.305 184.613 370.606 194.7 358.473C194.7 358.473 198.734 351.901 193.187 343.307C187.639 334.712 188.143 321.063 188.143 321.063C188.143 321.063 192.178 321.063 198.734 311.963Z" fill="#2F2E41"/>
<path d="M190 298.315L198.08 316.963L200 315.956L191.642 297.963L190 298.315Z" fill="#2F2E41"/>
<path d="M218 305.963L224.452 319.963L226 319.827L225.474 317.444L220.636 306.704C220.013 306.557 219.052 306.316 218 305.963Z" fill="#2F2E41"/>
<path d="M197.377 294.986C198.366 298.252 201.167 300.591 204.484 300.923C207.802 301.254 210.989 299.513 212.574 296.504C206.208 287.964 211.668 282.599 222.01 278.541C223.603 275.507 223.251 271.786 221.119 269.123C215.346 268.365 209.548 270.324 205.343 274.452L205.338 274.457L197.991 288.439C196.933 290.447 196.712 292.808 197.377 294.986Z" fill="#2F2E41"/>
<path d="M212.5 288.963C213.328 288.963 214 287.62 214 285.963C214 284.306 213.328 282.963 212.5 282.963C211.672 282.963 211 284.306 211 285.963C211 287.62 211.672 288.963 212.5 288.963Z" fill="#FFB8B8"/>
<path d="M218 281.084L233.212 287.963L236 281.822C235.52 279.577 234.514 277.478 233.065 275.695L222.595 270.963L218 281.084Z" fill="#2F2E41"/>
<path d="M254.5 415.963C258.09 415.963 261 413.053 261 409.463C261 405.873 258.09 402.963 254.5 402.963C250.91 402.963 248 405.873 248 409.463C248 413.053 250.91 415.963 254.5 415.963Z" fill="#222F65"/>
<path d="M38.5 455.963C40.9853 455.963 43 453.948 43 451.463C43 448.978 40.9853 446.963 38.5 446.963C36.0147 446.963 34 448.978 34 451.463C34 453.948 36.0147 455.963 38.5 455.963Z" fill="#FF6584"/>
<rect x="59" y="474.963" width="1" height="50" fill="#3F3D56"/>
<path d="M60 480.963C63.866 480.963 67 477.829 67 473.963C67 470.097 63.866 466.963 60 466.963C56.134 466.963 53 470.097 53 473.963C53 477.829 56.134 480.963 60 480.963Z" fill="#3F3D56"/>
<path d="M59 504.963C59 504.963 58.0233 483.69 38 486.163L59 504.963Z" fill="#3F3D56"/>
</svg>
